symbols/it/main-1v-AVA.svg

<?xml version="1.0" encoding="UTF-8" standalone="no"?>
<svg
   width="15"
   height="16.871405"
   viewBox="0 0 15 16.871404"
   version="1.1"
   id="svg6"
   sodipodi:docname="main-1v-AVA.svg"
   inkscape:version="1.2.2 (b0a8486541, 2022-12-01)"
   xmlns:inkscape="http://www.inkscape.org/namespaces/inkscape"
   xmlns:sodipodi="http://sodipodi.sourceforge.net/DTD/sodipodi-0.dtd"
   xmlns="http://www.w3.org/2000/svg"
   xmlns:svg="http://www.w3.org/2000/svg">
  <defs
     id="defs10" />
  <sodipodi:namedview
     id="namedview8"
     pagecolor="#ffffff"
     bordercolor="#666666"
     borderopacity="1.0"
     inkscape:showpageshadow="2"
     inkscape:pageopacity="0.0"
     inkscape:pagecheckerboard="0"
     inkscape:deskcolor="#d1d1d1"
     showgrid="false"
     inkscape:zoom="24.997738"
     inkscape:cx="-2.0801882"
     inkscape:cy="11.101004"
     inkscape:window-width="1920"
     inkscape:window-height="1128"
     inkscape:window-x="0"
     inkscape:window-y="0"
     inkscape:window-maximized="1"
     inkscape:current-layer="svg6" />
  <path
     fill-rule="nonzero"
     fill="#000000"
     fill-opacity="1"
     stroke-width="0.217304"
     stroke-linecap="butt"
     stroke-linejoin="miter"
     stroke="#ffffff"
     stroke-opacity="1"
     stroke-miterlimit="4"
     d="m 11.890622,4.4524006 c 0,2.4023427 -1.9687493,4.3476551 -4.3867176,4.3476551 -2.4296861,0 -4.3945297,-1.9453124 -4.3945297,-4.3476551 0,-2.3984364 1.9648436,-4.3437487 4.3945297,-4.3437487 2.4179683,0 4.3867176,1.9453123 4.3867176,4.3437487 z m 0,0"
     id="path2" />
  <path
     fill-rule="nonzero"
     fill="#ff0000"
     fill-opacity="1"
     d="m 9.2499999,4.4563081 c 0,0.960938 -0.785156,1.746094 -1.75,1.746094 -0.964844,0 -1.75,-0.785156 -1.75,-1.746094 0,-0.96875 0.785156,-1.75 1.75,-1.75 0.964844,0 1.75,0.78125 1.75,1.75 z m 0,0"
     id="path4" />
  <path
     fill-rule="nonzero"
     fill="#000000"
     fill-opacity="1"
     d="M 3.7539059,9.4495302 H 11.253906 V 16.871405 H 3.7539059 Z m 0,0"
     id="path401" />
  <path
     fill-rule="nonzero"
     fill="#000000"
     fill-opacity="1"
     d="m 15,13.160468 c 0,2.050781 -1.679688,3.710937 -3.746094,3.710937 -2.0742181,0 -3.7539061,-1.660156 -3.7539061,-3.710937 0,-2.050782 1.679688,-3.7109378 3.7539061,-3.7109378 C 13.320312,9.4495302 15,11.109686 15,13.160468 Z m 0,0"
     id="path403" />
  <path
     fill-rule="nonzero"
     fill="#ffffff"
     fill-opacity="1"
     d="m 13.835938,13.164374 c 0,1.421875 -1.160157,2.582031 -2.585938,2.582031 -1.425781,0 -2.5859381,-1.160156 -2.5859381,-2.582031 0,-1.433594 1.160157,-2.585938 2.5859381,-2.585938 1.425781,0 2.585938,1.152344 2.585938,2.585938 z m 0,0"
     id="path405" />
  <path
     fill-rule="nonzero"
     fill="#000000"
     fill-opacity="1"
     d="m 7.5,13.160468 c 0,2.050781 -1.679688,3.710937 -3.746094,3.710937 C 1.679688,16.871405 0,15.211249 0,13.160468 0,11.109686 1.679688,9.4495302 3.753906,9.4495302 5.820312,9.4495302 7.5,11.109686 7.5,13.160468 Z m 0,0"
     id="path407" />
  <path
     fill-rule="nonzero"
     fill="#ffffff"
     fill-opacity="1"
     d="m 6.335938,13.164374 c 0,1.421875 -1.160157,2.582031 -2.5859381,2.582031 -1.425781,0 -2.5859379,-1.160156 -2.5859379,-2.582031 0,-1.433594 1.1601569,-2.585938 2.5859379,-2.585938 1.4257811,0 2.5859381,1.152344 2.5859381,2.585938 z m 0,0"
     id="path409" />
</svg>

<?xml version="1.0" encoding="UTF-8"?>
<svg xmlns="http://www.w3.org/2000/svg" xmlns:xlink="http://www.w3.org/1999/xlink" width="15" height="16.871405" viewBox="0 0 15 16.871405">
<path fill-rule="nonzero" fill="rgb(0%, 0%, 0%)" fill-opacity="1" stroke-width="0.217304" stroke-linecap="butt" stroke-linejoin="miter" stroke="rgb(100%, 100%, 100%)" stroke-opacity="1" stroke-miterlimit="4" d="M 11.890625 4.453125 C 11.890625 6.855469 9.921875 8.800781 7.503906 8.800781 C 5.074219 8.800781 3.109375 6.855469 3.109375 4.453125 C 3.109375 2.054688 5.074219 0.109375 7.503906 0.109375 C 9.921875 0.109375 11.890625 2.054688 11.890625 4.453125 Z M 11.890625 4.453125 "/>
<path fill-rule="nonzero" fill="rgb(100%, 0%, 0%)" fill-opacity="1" d="M 9.25 4.457031 C 9.25 5.417969 8.464844 6.203125 7.5 6.203125 C 6.535156 6.203125 5.75 5.417969 5.75 4.457031 C 5.75 3.488281 6.535156 2.707031 7.5 2.707031 C 8.464844 2.707031 9.25 3.488281 9.25 4.457031 Z M 9.25 4.457031 "/>
<path fill-rule="nonzero" fill="rgb(0%, 0%, 0%)" fill-opacity="1" d="M 3.753906 9.449219 L 11.253906 9.449219 L 11.253906 16.871094 L 3.753906 16.871094 Z M 3.753906 9.449219 "/>
<path fill-rule="nonzero" fill="rgb(0%, 0%, 0%)" fill-opacity="1" d="M 15 13.160156 C 15 15.210938 13.320312 16.871094 11.253906 16.871094 C 9.179688 16.871094 7.5 15.210938 7.5 13.160156 C 7.5 11.109375 9.179688 9.449219 11.253906 9.449219 C 13.320312 9.449219 15 11.109375 15 13.160156 Z M 15 13.160156 "/>
<path fill-rule="nonzero" fill="rgb(100%, 100%, 100%)" fill-opacity="1" d="M 13.835938 13.164062 C 13.835938 14.585938 12.675781 15.746094 11.25 15.746094 C 9.824219 15.746094 8.664062 14.585938 8.664062 13.164062 C 8.664062 11.730469 9.824219 10.578125 11.25 10.578125 C 12.675781 10.578125 13.835938 11.730469 13.835938 13.164062 Z M 13.835938 13.164062 "/>
<path fill-rule="nonzero" fill="rgb(0%, 0%, 0%)" fill-opacity="1" d="M 7.5 13.160156 C 7.5 15.210938 5.820312 16.871094 3.753906 16.871094 C 1.679688 16.871094 0 15.210938 0 13.160156 C 0 11.109375 1.679688 9.449219 3.753906 9.449219 C 5.820312 9.449219 7.5 11.109375 7.5 13.160156 Z M 7.5 13.160156 "/>
<path fill-rule="nonzero" fill="rgb(100%, 100%, 100%)" fill-opacity="1" d="M 6.335938 13.164062 C 6.335938 14.585938 5.175781 15.746094 3.75 15.746094 C 2.324219 15.746094 1.164062 14.585938 1.164062 13.164062 C 1.164062 11.730469 2.324219 10.578125 3.75 10.578125 C 5.175781 10.578125 6.335938 11.730469 6.335938 13.164062 Z M 6.335938 13.164062 "/>
</svg>
